packages/ffe-icons/icons/filled/sm/note_stack_add.svg

<svg xmlns="http://www.w3.org/2000/svg" height="20" viewBox="0 -960 960 960" width="20"><path d="M308.001-180.309v-406.998q0-27.023 18.5-45.857 18.5-18.835 45.423-18.835h407.767q26.527 0 45.417 18.891 18.891 18.89 18.891 45.417v264.306q0 12.855-4.616 24.504-4.615 11.65-14.211 21.246L682.365-134.828q-9.596 9.596-21.246 14.211-11.649 4.616-24.504 4.616H372.309q-26.527 0-45.417-18.891-18.891-18.89-18.891-45.417Zm-190-515.767q-4.615-25.923 11.135-48.505 15.75-22.581 41.711-27.033l400.383-71.385q25.923-4.615 48.004 11.135t26.534 41.711l10.231 58.462h-283.69q-60 0-102 42t-42 102v339.612q-14.846-5.846-25.385-18.581-10.538-12.735-13.538-29.034l-71.385-400.382Zm432.252 338.075V-276q0 11.05 7.502 18.524 7.503 7.475 18.492 7.475t18.41-7.475q7.42-7.474 7.42-18.524v-82.001h81.689q10.984 0 18.609-7.418 7.624-7.418 7.624-18.384 0-10.966-7.475-18.455-7.474-7.49-18.524-7.49h-82.001v-82.168q0-11.085-7.478-18.584-7.479-7.499-18.534-7.499-11.056 0-18.521 7.499-7.465 7.499-7.465 18.584v82.168H468q-11.05 0-18.524 7.503-7.475 7.503-7.475 18.258 0 11.056 7.499 18.521 7.499 7.465 18.584 7.465h82.169Z"/></svg>

<svg xmlns="http://www.w3.org/2000/svg" height="20" viewBox="0 -960 960 960" width="20"><path d="M308-180.31v-407q0-27.02 18.5-45.85Q345-652 371.92-652h407.77q26.53 0 45.42 18.89T844-587.69v264.3q0 12.86-4.62 24.51-4.61 11.65-14.21 21.24L682.36-134.83q-9.59 9.6-21.24 14.21-11.65 4.62-24.51 4.62h-264.3q-26.53 0-45.42-18.89T308-180.31ZM118-696.08q-4.61-25.92 11.14-48.5t41.71-27.03L571.23-843q25.92-4.61 48 11.14 22.09 15.75 26.54 41.71L656-731.69H372.31q-60 0-102 42t-42 102v339.61q-14.85-5.84-25.39-18.58-10.53-12.74-13.53-29.03L118-696.08ZM550.25-358v82q0 11.05 7.51 18.52 7.5 7.48 18.49 7.48 10.99 0 18.41-7.48 7.42-7.47 7.42-18.52v-82h81.69q10.98 0 18.6-7.42 7.63-7.42 7.63-18.38 0-10.97-7.48-18.46-7.47-7.49-18.52-7.49h-82v-82.17q0-11.08-7.48-18.58-7.48-7.5-18.53-7.5-11.06 0-18.52 7.5Q550-503 550-491.92v82.17h-82q-11.05 0-18.52 7.51-7.48 7.5-7.48 18.25 0 11.06 7.5 18.52Q457-358 468.08-358h82.17Z"/></svg>
